svg/24/flash-off.svg

<svg width="24" height="24" viewBox="0 0 24 24" fill="currentColor" xmlns="http://www.w3.org/2000/svg"><path d="M15.6262 2.10122C15.9314 2.27814 16.072 2.64375 15.964 2.97953L14.0289 9.00003H19.25C19.5472 9.00003 19.8163 9.17547 19.9362 9.44735C20.0562 9.71924 20.0042 10.0363 19.8039 10.2557L16.7655 13.5835L15.7037 12.5218L17.5496 10.5H13.682L12.3873 9.20534L13.4824 5.79827L11.3337 8.15169L10.2719 7.08994L14.6962 2.24432C14.934 1.98386 15.3211 1.92429 15.6262 2.10122Z"/><path fill-rule="evenodd" clip-rule="evenodd" d="M14.7406 15.8012L18.7197 19.7803C19.0126 20.0732 19.4874 20.0732 19.7803 19.7803C20.0732 19.4874 20.0732 19.0126 19.7803 18.7197L5.28033 4.21967C4.98744 3.92678 4.51256 3.92678 4.21967 4.21967C3.92678 4.51256 3.92678 4.98744 4.21967 5.28033L8.24701 9.30767L4.19615 13.7443C3.99579 13.9638 3.94388 14.2808 4.0638 14.5527C4.18372 14.8246 4.45286 15 4.75001 15H9.97115L8.03599 21.0205C7.92806 21.3563 8.06868 21.7219 8.37379 21.8988C8.6789 22.0758 9.06606 22.0162 9.30388 21.7557L14.7406 15.8012ZM13.6788 14.7395L9.30876 10.3694L6.45039 13.5H11C11.2397 13.5 11.4649 13.6146 11.6061 13.8082C11.7473 14.0019 11.7874 14.2514 11.714 14.4795L10.5176 18.2018L13.6788 14.7395Z"/></svg>

<svg xmlns="http://www.w3.org/2000/svg" width="24" height="24" fill="currentColor" viewBox="0 0 24 24">
  <path d="M15.626 2.101a.75.75 0 0 1 .338.879L14.029 9h5.221a.75.75 0 0 1 .554 1.256l-3.038 3.328-1.062-1.062L17.55 10.5h-3.868l-1.295-1.295 1.095-3.407-2.148 2.354-1.062-1.062 4.424-4.846a.75.75 0 0 1 .93-.143Z"/>
  <path fill-rule="evenodd" d="m14.74 15.801 3.98 3.98a.75.75 0 1 0 1.06-1.061L5.28 4.22a.75.75 0 0 0-1.06 1.06l4.027 4.028-4.05 4.436A.75.75 0 0 0 4.75 15h5.221l-1.935 6.02a.75.75 0 0 0 1.268.736L14.74 15.8Zm-1.06-1.061-4.37-4.37-2.86 3.13H11a.75.75 0 0 1 .714.98l-1.196 3.722 3.16-3.463Z" clip-rule="evenodd"/>
</svg>
